!! Stephen C. Foster, "The Village Maiden"
!! from 'Stephen Foster Song Book' Dover Publications (New York) pp. 140-142
!! NOTE:  Leading and trailing bars of rest have been omitted.
**kern
*M2/4
*MM70
*D:
16r
16d
=1
8d
8d
8.dd
16ee
=2
4dd
8cc#
16r
16cc#
=3
8b
8a
8.b
16dd
=4
4.a
16r
16d
=5
8d
8d
8.dd
16ee
=6
4dd
8cc#
16r
16cc#
=7
8.b
16a
8b
8dd
=8
4.a
16r
16f#
=9
8f#
8f#
8e
8d
=10
4g
8f#
16r
16e
=11
8a
8a
8g
8f#
=12
4.b;
16r
16cc#
=13
8.dd
16ee
8b
8dd
=14
{8a
8b}
8d
16r
16e
=15
8f#
8f#
16e
8.e
=16
4.d
8r
=17
2r
=18
2r
=19
2r
=20
2r
=21
2r
=22
2r
=23
2r
=24
4.r
16r
16d
=25
8d
8d
8.dd
16ee
=26
4dd
8cc#
16r
16cc#
=27
8b
8a
8b
8dd
=28
4.a
16r
16d
=29
8d
8d
8.dd
16ee
=30
4dd
8cc#
16r
16cc#
=31
8b
8a
8b
8dd
=32
4.a
16r
16f#
=33
8f#
8f#
8e
8d
=34
4g
8f#
16r
16e
=35
8a
8a
8g
8f#
=36
4.b;
16r
16cc#
=37
8.dd
16ee
8b
8dd
=38
{8a
8b}
8d
16r
16e
=39
8f#
8f#
8e
8e
=40
4.d
==
*-
